packages/sources/icons/src/vitamix/viber-line.svg

<svg width="16" height="16" viewBox="0 0 16 16" xmlns="http://www.w3.org/2000/svg"><path d="M10.3157 9.16564C10.4376 8.80001 10.4376 8.51564 10.3969 8.43439C10.3698 8.38022 10.3247 8.36217 10.2495 8.33207C10.2119 8.31703 10.1667 8.29897 10.1126 8.27189C9.95005 8.19064 9.2188 7.82501 9.09693 7.78439C8.97505 7.74376 8.81255 7.74376 8.7313 7.90626C8.66459 7.98966 8.60472 8.07305 8.54889 8.15082C8.46873 8.26248 8.39689 8.36255 8.32505 8.43439C8.2438 8.51564 8.0813 8.55626 7.95943 8.47501C7.93139 8.46099 7.89366 8.44455 7.84751 8.42444C7.62625 8.328 7.21127 8.14713 6.74068 7.74376C6.38703 7.42227 6.13516 7.04989 5.98505 6.82797C5.9455 6.76949 5.91297 6.7214 5.88755 6.68751C5.8063 6.52501 5.88755 6.44376 5.9688 6.36251L6.21255 6.11876C6.2938 6.03751 6.33443 5.99689 6.37505 5.87501C6.41568 5.79376 6.37505 5.67189 6.33443 5.59064C6.31412 5.55001 6.23286 5.34688 6.14146 5.11836C6.05005 4.88986 5.94849 4.63594 5.88755 4.49376C5.8063 4.29064 5.72505 4.29064 5.56255 4.29064C5.52193 4.25001 5.44068 4.25001 5.40005 4.25001C5.19693 4.25001 4.9938 4.29064 4.87193 4.45314C4.70943 4.61564 4.3438 4.98126 4.3438 5.71251C4.3438 6.44376 4.87193 7.17501 4.95318 7.25626C4.96354 7.26663 4.98846 7.3008 5.02716 7.35389C5.29182 7.71689 6.20121 8.96419 7.51255 9.53126C8.69068 10.0188 9.0563 9.97814 9.30005 9.93751C9.7063 9.81564 10.1938 9.53126 10.3157 9.16564Z"/><path d="M7.79692 5.2018C7.60461 5.2018 7.44871 5.3577 7.44871 5.55001C7.44871 5.74232 7.60461 5.89823 7.79692 5.89823C8.13273 5.89823 8.38308 6.14858 8.38308 6.48439C8.38308 6.6767 8.53898 6.8326 8.7313 6.8326C8.92361 6.8326 9.07951 6.6767 9.07951 6.48439C9.07951 5.76395 8.51736 5.2018 7.79692 5.2018Z"/><path d="M7.44871 3.03127C7.44871 2.83896 7.60461 2.68306 7.79692 2.68306C9.89861 2.68306 11.5983 4.38271 11.5983 6.4844C11.5983 6.67671 11.4424 6.83261 11.25 6.83261C11.0577 6.83261 10.9018 6.67671 10.9018 6.4844C10.9018 4.76734 9.51399 3.37949 7.79692 3.37949C7.60461 3.37949 7.44871 3.22358 7.44871 3.03127Z"/><path d="M7.79692 3.94243C7.60461 3.94243 7.44871 4.09833 7.44871 4.29064C7.44871 4.48295 7.60461 4.63886 7.79692 4.63886C8.82336 4.63886 9.64246 5.45796 9.64246 6.48439C9.64246 6.67671 9.79836 6.83261 9.99067 6.83261C10.183 6.83261 10.3389 6.67671 10.3389 6.48439C10.3389 5.07333 9.20799 3.94243 7.79692 3.94243Z"/><path d="M3.33396 1.83917C4.6043 0.966909 6.2976 0.77948 8.00008 0.77948C9.70255 0.77948 11.3959 0.966909 12.6662 1.83917C13.9917 2.74927 14.7206 4.3006 14.7206 6.68752C14.7206 9.07443 13.9917 10.6258 12.6662 11.5359C11.3959 12.4081 9.70255 12.5956 8.00008 12.5956H7.08158L5.65623 14.0209L5.62913 14.0426L5.62703 14.0443L5.62121 14.0492L5.60072 14.0669C5.58386 14.0817 5.56315 14.1002 5.53937 14.1218C5.49186 14.1648 5.43637 14.216 5.38269 14.2659C5.32925 14.3156 5.27876 14.363 5.24155 14.398L5.19727 14.4398L4.12329 15.4572V11.9863C3.34257 11.6374 2.66129 11.1132 2.16056 10.3314C1.57852 9.42275 1.27954 8.22705 1.27954 6.68752C1.27954 4.3006 2.0085 2.74927 3.33396 1.83917ZM4.04354 2.87258C3.16509 3.47576 2.53311 4.56505 2.53311 6.68752C2.53311 8.07298 2.80288 9.01009 3.21616 9.65531C3.62365 10.2915 4.20887 10.7037 4.96089 10.9722L5.37686 11.1208V12.5274L6.56233 11.342H8.00008C9.66948 11.342 11.023 11.1435 11.9566 10.5024C12.8351 9.89927 13.467 8.80998 13.467 6.68752C13.467 4.56505 12.8351 3.47576 11.9566 2.87258C11.023 2.23156 9.66948 2.03305 8.00008 2.03305C6.33068 2.03305 4.97711 2.23156 4.04354 2.87258Z"/></svg>

<svg width="16" height="16" xmlns="http://www.w3.org/2000/svg"><path d="M10.316 9.166c.122-.366.122-.65.08-.732-.026-.054-.071-.072-.147-.102-.037-.015-.082-.033-.136-.06-.163-.081-.894-.447-1.016-.488-.122-.04-.284-.04-.366.122a5.79 5.79 0 0 0-.182.245c-.08.111-.152.212-.224.283-.081.082-.244.122-.366.041-.028-.014-.065-.03-.111-.05-.222-.097-.637-.278-1.107-.681-.354-.322-.606-.694-.756-.916a3.975 3.975 0 0 0-.097-.14c-.082-.163 0-.244.08-.325l.245-.244c.08-.081.121-.122.162-.244.04-.081 0-.203-.04-.284-.02-.041-.102-.244-.194-.473-.091-.228-.193-.482-.253-.624-.082-.203-.163-.203-.325-.203-.041-.041-.122-.041-.163-.041-.203 0-.406.04-.528.203-.163.163-.528.528-.528 1.26 0 .73.528 1.462.61 1.543.01.01.034.045.073.098.265.363 1.174 1.61 2.486 2.177 1.178.488 1.543.447 1.787.407.406-.122.894-.407 1.016-.772Z"/><path d="M7.797 5.202a.348.348 0 0 0 0 .696c.336 0 .586.25.586.586a.348.348 0 0 0 .697 0c0-.72-.563-1.282-1.283-1.282ZM7.449 3.031c0-.192.156-.348.348-.348 2.102 0 3.801 1.7 3.801 3.801a.348.348 0 0 1-.696 0A3.102 3.102 0 0 0 7.797 3.38a.348.348 0 0 1-.348-.348Z"/><path d="M7.797 3.942a.348.348 0 0 0 0 .697c1.026 0 1.845.819 1.845 1.845a.348.348 0 1 0 .697 0 2.533 2.533 0 0 0-2.542-2.542Z"/><path d="M3.334 1.84C4.604.966 6.298.78 8 .78c1.703 0 3.396.187 4.666 1.06 1.326.91 2.055 2.46 2.055 4.848 0 2.386-.73 3.938-2.055 4.848-1.27.872-2.963 1.06-4.666 1.06h-.918L5.656 14.02l-.027.022-.002.001-.006.005-.02.018a16.73 16.73 0 0 0-.36.331l-.044.042-1.074 1.017v-3.47c-.78-.35-1.462-.874-1.962-1.656-.582-.908-.881-2.104-.881-3.643 0-2.387.729-3.939 2.054-4.849Zm.71 1.033c-.879.603-1.51 1.692-1.51 3.815 0 1.385.269 2.322.682 2.967.408.636.993 1.049 1.745 1.317l.416.149v1.406l1.185-1.185H8c1.67 0 3.023-.199 3.957-.84.878-.603 1.51-1.692 1.51-3.814 0-2.123-.632-3.212-1.51-3.815-.934-.641-2.288-.84-3.957-.84-1.67 0-3.023.199-3.956.84Z"/></svg>
